X:11
T:Alston Flower Show
M:4/4
L:1/8
S:Darcie's TrTuneSbk Vo.2 (1998) p. 2
R:Hornpipe
Z: Wosika
K:GIon
|:(dc)| "G"Bd"D"AB "D"Ggfd| "C"edef "G"g2dc| Bg (3edc "Emin"BGFG| "A"Ad^ce "D"d2d=c|
"G"Bd"D"AB "G"Ggfd| "C"edef "G"g2 dc| Bg (3edc "D"BGAF| "G"G2 B2 G2:|
|:(cB)| "D"ADEF GABc| "G"(3BAG "C"ce "G"dGBd| "C"egfa "G"gfed| "A"fed^c "D"d2d=c|
"G"Bd"D"AB "G"Ggfd| "C"edef "G"g2 dc| Bg (3edc "D"BGAF| "G"G2 B2 G2:|
